!!!!SEGMENT: pl-wn--mus-iii-62-770--001_zelenski-wladyslaw--dwie-piesni-roza-dzika.krn
!!!cenid: 18xx:3762
!!!COM: Żeleński, Władysław
!!!COM-rismID: pe41024455
!!!CDT: 1837/07/06-1921/01/23
!!!CNT: Polish
!!!GTL: Dwie pieśni
!!!OTL: Róża dzika
!!!PDT:
!!!AGN:
!!!SMS-siglum: PL-Wn
!!!SMS-shelfmark: Mus.III.62.770
!!!SMS-shelfwork: 001 G
!!!SMS-variant:
!!!SMS-altvar:
!!!NIFC-rismSourceID:
!!!NIFC-rismChildID:
!!!NIFC-islandoraID:
!!!URL-pdf-islandora:
!!!URL-scan: https://polona.pl/item/dwie-piesni-z-towarzyszeniem-fortepianu,MTA2MzEwNDQx/0 @EN{Scan on Polona} @PL{Skany w portalu Polona}
!!!ONB-nifc:
!!!AIN: 2 piano 1 vox
!!!key: E
**kern	**kern	**dynam	**kern	**text	**dynam
*part3	*part2	*part2	*part1	*part1	*part1
*staff3	*staff2	*	*staff1	*staff1	*
*I"Fortepian.	*I"Fortepian.	*	*I"Śpiew.	*	*
*I'pf	*I'pf	*	*I'V	*	*
*ICklav	*ICklav	*	*ICvox	*	*
*Ipiano	*Ipiano	*	*Ivox	*	*
*clefF4	*clefG2	*	*clefG2	*	*
*k[f#c#g#d#]	*k[f#c#g#d#]	*	*k[f#c#g#d#]	*	*
*E:	*E:	*	*E:	*	*
*M4/4	*M4/4	*	*M4/4	*	*
*met(c)	*met(c)	*	*met(c)	*	*
=1	=1	=1	=1	=1	=1
*^	*	*	*	*	*
*xywh-3:283,677,3740,2020	*xywh-3:283,677,3740,2020	*xywh-3:283,677,3740,2020	*	*xywh-3:283,677,3740,2020	*	*
!	!	!	!	!LO:TX:a:B:t=Andante.	!	!
([2BB/	2ryy	8r	.	1r	.	.
!	!	!	!LO:HP:b	!	!	!
!	!	!	!LO:DY:b	!	!	!
.	.	(>8c#/L 8a	p <	.	.	.
.	.	8B/ 8d#	.	.	.	.
.	.	8c#/J 8e	.	.	.	.
8BB/L]	[2BB\	4d#/ 4f#	.	.	.	.
8B/	.	.	.	.	.	.
8F#/	.	[4e^/ [4cc#	.	.	.	.
8G#/J	.	.	.	.	.	.
=2	=2	=2	=2	=2	=2	=2
*	*	*^	*	*	*	*
*	*	*	*xywh-3:283,677,3740,2020	*	*	*	*
4.A/	1BB]	8cc#/L]	2e\]	[	1r	.	.
.	.	8e#X/	.	.	.	.	.
!	!	!	!	!LO:HP:b	!	!	!
.	.	8f#/	.	>	.	.	.
8G#/	.	8g#/J	.	.	.	.	.
8F#/)	.	8e#/L 8a	8ryy	.	.	.	.
8ryy	.	8B/	4B\	.	.	.	.
4ryy	.	8c#/ 8e#	.	.	.	.	.
.	.	8A/J 8d# 8f#	8ryy	.	.	.	.
*v	*v	*	*	*	*	*	*
=3	=3	=3	=3	=3	=3	=3
!LO:TX:i:b:t=con	!	!	!	!	!	!
!	!	!	!	!	!	!LO:DY:a
2EE/	8G#/L) 8e 8g#	8ryy	]	4.b\	Tam	p
!	!	!	!LO:DY:b	!	!	!
*ped	*	*	*	*	*	*
.	8G#/	[4.G#\	p	.	.	.
.	8B/	.	.	.	.	.
.	8e/J	.	.	8g#/	u	.
[2E\	8g#/L	4G#\]	.	8cc#\	szczy-	.
.	8e/	.	.	8b\	-tu	.
.	8B/	4ryy	.	8g#/	te-	.
.	8G#/J	.	.	8e/	-go	.
!!LO:LB:g=original	!	!	!	!	!	!
=4	=4	=4	=4	=4	=4	=4
!	!LO:N:vis=2	!	!	!	!	!
*xywh-3:403,2672,3509,1104	*xywh-3:403,2672,3509,1104	*xywh-3:403,2672,3509,1104	*xywh-3:403,2672,3509,1104	*xywh-3:403,2672,3509,1104	*	*
2E\]	8A/L	[2A\	.	(4.f#/	wzgó-	.
.	8c#/	.	.	.	.	.
.	8f#/	.	.	.	.	.
.	8c#/J	.	.	8g#/)	.	.
!	!	!	!LO:HP:b	!	!	!
[2EE/	8a/L	8A\]	<	4a/	-rza	.
.	8f#/	8ryy	.	.	.	.
.	8c#/	4ryy	.	8g#/	któ-	.
.	8A/J	.	.	8a/	-re	.
=5	=5	=5	=5	=5	=5	=5
!	!	!	!	!	!	!LO:HP:a
2EE/]	8F#/L	8ryy	[	[2ee\	czo-	<
.	8A/	[4.A\	.	.	.	.
.	8c#/	.	.	.	.	.
.	8f#/J	.	.	.	.	.
[2E\	8a/L	8A\]	.	8ee\]	.	[
.	8f#/	8ryy	.	8cc#\	-łem	.
.	8c#/	4ryy	.	8a/	chmur	.
.	8A/J	.	.	8g#/	do-	.
=6	=6	=6	=6	=6	=6	=6
!	!	!	!	!	!	!LO:HP:a
(4E\]	8F#/L	8ryy	.	4b\	-ty-	>
!	!	!	!LO:HP:b	!	!	!
.	8B/	[4.B\	>	.	.	.
4EE/	8f#/	.	.	4f#/	-ka	]
.	8a/J	.	.	.	.	.
2DD#/)	8b/L	8B\]	.	4r	.	.
.	8a/	8ryy	.	.	.	.
.	8f#/	4ryy	.	8g#/	wy-	.
.	8B/J	.	.	8a/	-strze-	.
!!LO:LB:g=original	!	!	!	!	!	!
=7	=7	=7	=7	=7	=7	=7
*xywh-3:506,3794,3398,1284	*xywh-3:506,3794,3398,1284	*xywh-3:506,3794,3398,1284	*xywh-3:506,3794,3398,1284	*xywh-3:506,3794,3398,1284	*	*
!	!LO:N:vis=2	!	!	!	!	!
2EE/	8G#/L	[2G#\	]	4.b\	-li-	.
.	8B/	.	.	.	.	.
.	8e/	.	.	.	.	.
.	8B/J	.	.	8g#/	-ła	.
2DDn/ 2Dn	8g#/L	8G#\]	.	8cc#\L	śli-	.
.	8e/	8ryy	.	8b\	.	.
.	8B/	4ryy	.	8g#\J	.	.
.	8G#/J	.	.	8e/	-czna	.
=8	=8	=8	=8	=8	=8	=8
!	!LO:N:vis=2	!	!	!	!	!
(4CC#/ 4C#	(8A/L	2A\	.	(4.f#/	ró-	.
.	8e/	.	.	.	.	.
4CCn/ 4Cn	8f#/	.	.	.	.	.
.	8e/J	.	.	8a/)	.	.
4BBB/ 4BB	4g#/	8g#\L	.	8g#/	-ża,	.
!	!	!	!	!	!	!LO:HP:a
.	.	8dn\	.	8g#/L	Ró-	<
4EE/)	8d/L 8f#	8A\	.	8f#/J	.	.
.	8d/J 8e	8G#\J	.	8e/	-ża	[[
=9	=9	=9	=9	=9	=9	=9
[2AAA/ [2AA	(>8A/L) 8c# 8e	8ryy	.	4cc#\	won-	.
.	8A/	4.A\	.	.	.	.
.	8B#X/	.	.	4f#/	-na	.
.	8c#/J	.	.	.	.	.
8AAA/] 8AA]	8A/) 8c# 8f#	2ryy	.	8r	.	.
!	!	!	!	!	!	!LO:HP:a
8r	8r	.	.	8f#/L	cho-	<
4r	4r	.	.	8e#X/J	.	.
.	.	.	.	8f#/	-ciaż	[[
=10	=10	=10	=10	=10	=10	=10
!	!	!	!	!	!	!LO:HP:a
(2BBB/ 2BB	8r	8ryy	.	(4.a/	dzi-	>
.	(8A/L	4.A\	.	.	.	.
.	8c#/	.	.	.	.	.
.	8d#/J	.	.	8g#/)	.	.
4EE/)	4G#/) 4e	2ryy	.	4e/	-ka.	]
!	!	!	!	!LO:TX:a:i:t=dolce	!	!
4r	4r	.	.	8e/	Zkąd	.
.	.	.	.	8f#/	się	.
!!LO:LB:g=original	!	!	!	!	!	!
!!LO:PB:g=original	!	!	!	!	!	!
=11	=11	=11	=11	=11	=11	=11
*xywh-4:510,909,3312,1087	*xywh-4:510,909,3312,1087	*xywh-4:510,909,3312,1087	*xywh-4:510,909,3312,1087	*xywh-4:510,909,3312,1087	*	*
([2CC#/	8r	8ryy	.	(4.g#/	wzię-	.
.	(8G#/L	[4.G#\	.	.	.	.
.	8e/ 8g#	.	.	.	.	.
.	8d#/J 8f#	.	.	8b/	.	.
8CC#/L]	8c#/L) 8e	8G#\]	.	8a#X/)	.	.
8C#/	(8G#/	[4.G#\	.	8g#/	-łaś	.
8GG#/	8c#/	.	.	8f##X/	w tem	.
8CC#/J)	8e/J	.	.	8g#/	u-	.
*	*v	*v	*	*	*	*
=12	=12	=12	=12	=12	=12
([2GG#/	8G#/L]) 8B 8d#	.	4b\	-stro-	.
.	([8d#/	.	.	.	.
.	8d#/] 8b	.	4d#/	-niu.	.
.	8c#/J 8a#X	.	.	.	.
8GG#/L]	8B/L) 8g#	.	8r	.	.
8G#/	(8d#/	.	4g#/	Ja-	.
8D#/	8B/	.	.	.	.
8GG#/J)	8d#/J	.	8a#X/	-ką	.
=13	=13	=13	=13	=13	=13
!	!	!	!LO:TX:a:i:t=espress.	!	!
(2FF#/	8B/L) 8g#	.	(4.b\	gna-	.
!	!	!LO:HP:b	!	!	!
.	(8d#/	<	.	.	.
.	8dn/ 8b	.	.	.	.
.	8B/J 8g#	.	8ddn\	.	.
8EE#X/L	8c#/L) 8a	.	8cc#\)	.	.
8C#/	(8B/	.	8b\	-na	.
8E#X/	8c#/	.	8a/	tu	.
8C#/J)	8B/J 8g#	[[	8g#/	po-	.
=14	=14	=14	=14	=14	=14
!	!	!LO:HP:b	!	!	!
[2FF#/	8A/L) 8f#	>	8a/L	-trze-	.
.	(8c#/	.	8b/J	.	.
.	8c#/ 8a	.	4cc#\	-bą?	.
.	8B/J 8g#	]	.	.	.
8FF#/L]	8A/L 8f#	.	4r	.	.
8C#/	8c#/	.	.	.	.
!	!	!	!LO:TX:a:i:t=poco	!	!
8F#/	8A/	.	8a/	Czyż	.
8C#/J	8c#/J	.	8b/	nie	.
!!LO:LB:g=original	!	!	!	!	!
=15	=15	=15	=15	=15	=15
*	*^	*	*	*	*
*xywh-4:484,1927,3364,1070	*xywh-4:484,1927,3364,1070	*xywh-4:484,1927,3364,1070	*xywh-4:484,1927,3364,1070	*xywh-4:484,1927,3364,1070	*	*
[2FF#/	8A/L) 8f#	8ryy	.	4.cc#\	le-	<
!	!	!	!LO:DY:b	!	!	!
.	(8c#/	[4.c#\	p	.	.	.
.	8a/ 8cc#	.	.	.	.	.
.	8g#/J 8b	.	.	8ee\	-piej	.
8FF#/L]	8f#/L) 8a	8c#\]	.	8dd#\L	tam	.
8C#/	(8c#/	8ryy	.	8cc#\	.	.
8F#/	8A/	4ryy	.	8b#X\J	.	.
8C#/J	8c#/J	.	.	8cc#\	na	.
=16	=16	=16	=16	=16	=16	=16
!	!	!	!LO:HP:b:t=cresc.	!	!	!
[2CC#/	8G#/L) 8e	8ryy	<	4ee\	bło-	.
.	(8G#/	[4.G#\	.	.	.	.
!	!	!LO:TX:b:i:t=un poco	!	!	!	!
.	8e/ 8g#	.	.	4g#/	-niu.	.
.	8d#/J 8f#	.	.	.	.	.
8CC#/L]	8c#/L) 8e	8G#\]	.	8r	.	.
8GG#/	(8G#/	8ryy	.	4g#/	Ros-	.
8C#/	8E/	4ryy	.	.	.	.
8GG#/J	8G#/J	.	.	8a#X/	-nąć	.
*	*v	*v	*	*	*	*
=17	=17	=17	=17	=17	=17
!	!	!	!	!	!LO:HP:a
(>[2GG#/	8D#/L) 8B	.	4b\	by-	<
.	(>8d#/	.	.	.	.
.	8c#/ 8a#X	.	4a#X/	-ło	.
.	8e/J	.	.	.	.
8GG#/L]	8B/L 8b	.	4b\	gdzie	.
8G#/	8d#/	.	.	.	.
8Gn/	8e/ 8cc#	.	4cc#\	twe	[[
8F#/J	8a#/J	.	.	.	.
=18	=18	=18	=18	=18	=18
*^	*^	*	*	*	*
*	*	*xywh-4:484,1927,3364,1070	*xywh-4:484,1927,3364,1070	*	*	*	*
!	!	!	!	!	!	!	!LO:DY:a
!LO:N:vis=2	!	!	!	!	!LO:TX:a:i:t=dolce	!	!LO:DY:a
*	*xywh-4:484,1927,3364,1070	*	*	*	*	*	*
8BB/L	(2BB\	4.an/ 4.dd#	8d#\L	.	(4.dd#\	nie-	p >
8C#/	.	.	8e\	.	.	.	.
8D#/	.	.	8f#\	.	.	.	.
8E/J	.	8cc#/)	8e\J	.	8cc#\)	.	.
8F#/L	2BB\)	8e/L 8b	8ryy	.	4b\	-bo?	]
8G#/J	.	(8B/	4B\	.	.	.	.
8A/)	.	8c#/ 8e	.	.	4r	.	.
8ryy	.	8d#/J) 8f#	8A\	.	.	.	.
*v	*v	*	*	*	*	*	*
!!LO:LB:g=original	!	!	!	!	!	!
=19	=19	=19	=19	=19	=19	=19
*xywh-4:544,3006,3312,1027	*xywh-4:544,3006,3312,1027	*xywh-4:544,3006,3312,1027	*xywh-4:544,3006,3312,1027	*xywh-4:544,3006,3312,1027	*	*
!	!	!LO:N:vis=2	!	!	!	!
!	!	!	!LO:DY:b	!	!	!
(2EE/	(2e^/	32e\LLL	pp	8r	.	.
.	.	32B\	.	.	.	.
.	.	32G#\	.	.	.	.
.	.	32B\JJJ	.	.	.	.
.	.	32G#\LLL	.	4b\	Tu-	.
.	.	32B\	.	.	.	.
.	.	32G#\	.	.	.	.
.	.	32B\JJJ	.	.	.	.
.	.	32G#\LLL	.	.	.	.
.	.	32B\	.	.	.	.
.	.	32G#\	.	.	.	.
.	.	32B\JJJ	.	.	.	.
.	.	32G#\LLL	.	8g#/	-taj	.
.	.	32B\	.	.	.	.
.	.	32G#\	.	.	.	.
.	.	32B\JJJ	.	.	.	.
*	*	*tremolo	*	*	*	*
2DDn/) 2Dn	2e/)	32G#\LLL	.	8cc#\	wi-	.
.	.	32B\	.	.	.	.
.	.	32G#\	.	.	.	.
.	.	32B\	.	.	.	.
.	.	32G#\	.	8b\	-chry	.
.	.	32B\	.	.	.	.
.	.	32G#\	.	.	.	.
.	.	32B\	.	.	.	.
.	.	32G#\	.	8g#/	ci	.
.	.	32B\	.	.	.	.
.	.	32G#\	.	.	.	.
.	.	32B\	.	.	.	.
.	.	32G#\	.	8e/	za-	.
.	.	32B\	.	.	.	.
.	.	32G#\	.	.	.	.
.	.	32B\JJJ	.	.	.	.
*	*	*Xtremolo	*	*	*	*
=20	=20	=20	=20	=20	=20	=20
!	!	!LO:N:vis=2	!LO:HP:a:t=cresc.	!	!	!LO:HP:a:t=cresc.
8r	(2e^/	32e\LLL	<	(4.f#/	-gro-	<
.	.	32cn\	.	.	.	.
!	!	!LO:TX:a:i:t=e string.	!	!	!	!
.	.	32A\	.	.	.	.
.	.	32c\JJJ	.	.	.	.
(4CCn/ 4Cn	.	32A\LLL	.	.	.	.
.	.	32c\	.	.	.	.
.	.	32A\	.	.	.	.
.	.	32c\JJJ	.	.	.	.
.	.	32A\LLL	.	.	.	.
.	.	32c\	.	.	.	.
.	.	32A\	.	.	.	.
.	.	32c\JJJ	.	.	.	.
!	!	!	!	!LO:TX:a:i:t= e string.	!	!
8BBB/ 8BB	.	32A\LLL	.	8g#/)	.	.
.	.	32c\	.	.	.	.
.	.	32A\	.	.	.	.
.	.	32c\JJJ	.	.	.	.
*	*	*tremolo	*	*	*	*
2AAA/) 2AA	2e/)	32A\LLL	.	8a/	-żą	.
.	.	32c\	.	.	.	.
.	.	32A\	.	.	.	.
.	.	32c\	.	.	.	.
.	.	32A\	.	8a/L	I	.
.	.	32c\	.	.	.	.
.	.	32A\	.	.	.	.
.	.	32c\	.	.	.	.
.	.	32A\	.	8g#/J	.	.
.	.	32c\	.	.	.	.
.	.	32A\	.	.	.	.
.	.	32c\	.	.	.	.
.	.	32A\	.	8a/	nim	.
.	.	32c\	.	.	.	.
.	.	32A\	.	.	.	.
.	.	32c\JJJ	.	.	.	.
!!LO:LB:g=original	!	!	!	!	!	!
*	*	*Xtremolo	*	*	*	*
=21	=21	=21	=21	=21	=21	=21
*xywh-4:561,4016,3407,1164	*xywh-4:561,4016,3407,1164	*xywh-4:561,4016,3407,1164	*xywh-4:561,4016,3407,1164	*xywh-4:561,4016,3407,1164	*	*
8r	4fn^/	32f\LLL	.	4ddn\	pą-	.
.	.	32dn\	.	.	.	.
.	.	32B\	.	.	.	.
.	.	32d\JJJ	.	.	.	.
!	!	!	!LO:HP:b	!	!	!
(4GGG#/ 4GG#	.	32B\LLL	>	.	.	.
.	.	32d\	.	.	.	.
.	.	32B\	.	.	.	.
.	.	32d\JJJ	.	.	.	.
.	[4e^/	32e\LLL	.	4g#/	-czek	.
.	.	32d\	.	.	.	.
.	.	32B\	.	.	.	.
.	.	32d\JJJ	.	.	.	.
8FFF#/ 8FF#	.	32B\LLL	.	.	.	.
.	.	32d\	.	.	.	.
.	.	32B\	.	.	.	.
.	.	32d\JJJ	.	.	.	.
*	*	*tremolo	*	*	*	*
2EEE/) 2EE	2e/]	32B\LLL	]	8r	.	.
.	.	32d\	.	.	.	.
.	.	32B\	.	.	.	.
.	.	32d\	.	.	.	.
.	.	32B\	.	8g#/L	się	.
.	.	32d\	.	.	.	.
.	.	32B\	.	.	.	.
.	.	32d\	.	.	.	.
.	.	32B\	.	8a/J	.	.
.	.	32d\	.	.	.	.
.	.	32B\	.	.	.	.
.	.	32d\	.	.	.	.
.	.	32B\	.	8b\	roz-	.
.	.	32d\	.	.	.	.
.	.	32B\	.	.	.	.
.	.	32d\JJJ	.	.	.	.
*	*	*Xtremolo	*	*	*	*
=22	=22	=22	=22	=22	=22	=22
8r	4d#^/	32d#X\LLL	.	(4.ccn\	-wi-	.
.	.	32cn\	.	.	.	.
.	.	32A\	.	.	.	.
.	.	32c\JJJ	.	.	.	.
(4AAA/ 4AA	.	32A\LLL	.	.	.	.
.	.	32c\	.	.	.	.
.	.	32A\	.	.	.	.
.	.	32c\JJJ	.	.	.	.
.	4e^/	32e\LLL	.	.	.	.
.	.	32c\	.	.	.	.
.	.	32A\	.	.	.	.
.	.	32c\JJJ	.	.	.	.
8BBB/ 8BB	.	32A\LLL	.	8b\)	.	.
.	.	32c\	.	.	.	.
.	.	32A\	.	.	.	.
.	.	32c\JJJ	.	.	.	.
2CCn/) 2Cn	4fn^/	32f\LLL	.	8a/	-nie,	.
.	.	32c\	.	.	.	.
.	.	32A\	.	.	.	.
.	.	32c\JJJ	.	.	.	.
.	.	32A\LLL	.	8r	.	.
.	.	32c\	.	.	.	.
.	.	32A\	.	.	.	.
.	.	32c\JJJ	.	.	.	.
!	!	!	!	!LO:TX:a:t=a tempo	!	!LO:DY:a
.	4e^/	32e\LLL	.	8a/	List-	p
.	.	32c\	.	.	.	.
.	.	32A\	.	.	.	.
.	.	32c\JJJ	.	.	.	.
.	.	32A\LLL	.	8b/	-ki	.
.	.	32c\	.	.	.	.
.	.	32A\	.	.	.	.
.	.	32c\JJJ	.	.	.	.
!!LO:LB:g=original	!	!	!	!	!	!
=23	=23	=23	=23	=23	=23	=23
*xywh-5:450,654,3377,1231	*xywh-5:450,654,3377,1231	*xywh-5:450,654,3377,1231	*xywh-5:450,654,3377,1231	*xywh-5:450,654,3377,1231	*	*
!	!LO:TX:a:t=a tempo	!	!	!	!	!
8r	4a^/	32a\LLL	p	4.ccn\	zwa-	.
.	.	32cn\	.	.	.	.
.	.	32A\	.	.	.	.
.	.	32c\JJJ	.	.	.	.
(4FFFn/ 4FFn	.	32A\LLL	.	.	.	.
.	.	32c\	.	.	.	.
.	.	32A\	.	.	.	.
.	.	32c\JJJ	.	.	.	.
.	4gn^/	32g\LLL	>	.	.	.
.	.	32c\	.	.	.	.
.	.	32A\	.	.	.	.
.	.	32c\JJJ	.	.	.	.
8GGGn/ 8GGn	.	32A\LLL	.	8a/	-rzą	.
.	.	32c\	.	.	.	.
.	.	32A\	.	.	.	.
.	.	32c\JJJ	.	.	.	.
!	!	!LO:N:vis=2	!	!	!	!
2AAA/) 2AA	2fn^/	32f\LLL	.	8ddn\L	kwia-	.
.	.	32c\	]	.	.	.
.	.	32A\	.	.	.	.
.	.	32c\JJJ	.	.	.	.
.	.	32A\LLL	.	8ccn\	.	.
.	.	32c\	.	.	.	.
.	.	32A\	.	.	.	.
.	.	32c\JJJ	.	.	.	.
.	.	32A\LLL	.	8a\J	.	.
.	.	32c\	.	.	.	.
.	.	32A\	.	.	.	.
.	.	32c\JJJ	.	.	.	.
.	.	32A\LLL	.	8fn/	-tek	.
.	.	32c\	.	.	.	.
.	.	32A\	.	.	.	.
.	.	32c\JJJ	.	.	.	.
=24	=24	=24	=24	=24	=24	=24
8r	4gn^/	32g\LLL	.	(4.e/	zmro-	.
.	.	32cn\	.	.	.	.
.	.	32Gn\	.	.	.	.
.	.	32c\JJJ	.	.	.	.
(4EEE/ 4EE	.	32G\LLL	.	.	.	.
.	.	32c\	.	.	.	.
.	.	32G\	.	.	.	.
.	.	32c\JJJ	.	.	.	.
!	!	!LO:N:vis=2	!	!	!	!
.	2.e^/	32e\LLL	.	.	.	.
.	.	32c\	.	.	.	.
.	.	32G\	.	.	.	.
.	.	32c\JJJ	.	.	.	.
8FFFn/ 8FFn	.	32G\LLL	.	8gn/)	.	.
.	.	32c\	.	.	.	.
.	.	32G\	.	.	.	.
.	.	32c\JJJ	.	.	.	.
*	*	*tremolo	*	*	*	*
2GGGn/) 2GGn	.	32G\LLL	.	4ccn\	-żą	.
.	.	32c\	.	.	.	.
.	.	32G\	.	.	.	.
.	.	32c\	.	.	.	.
.	.	32G\	.	.	.	.
.	.	32c\	.	.	.	.
.	.	32G\	.	.	.	.
.	.	32c\	.	.	.	.
!	!	!	!	!LO:TX:a:i:t=un poco	!	!
.	.	32G\	.	8cc\	I	.
.	.	32c\	.	.	.	.
.	.	32G\	.	.	.	.
.	.	32c\	.	.	.	.
.	.	32G\	.	8b\	roz	.
.	.	32c\	.	.	.	.
.	.	32G\	.	.	.	.
.	.	32c\JJJ	.	.	.	.
!!LO:LB:g=original	!	!	!	!	!	!
*	*	*Xtremolo	*	*	*	*
=25	=25	=25	=25	=25	=25	=25
*xywh-5:493,1791,3308,1137	*xywh-5:493,1791,3308,1137	*xywh-5:493,1791,3308,1137	*xywh-5:493,1791,3308,1137	*xywh-5:493,1791,3308,1137	*	*
!	!	!	!	!LO:TX:a:i:t=espress.	!	!
8r	4a^/	32a\LLL	.	4a/	wie-	.
.	.	32cn\	.	.	.	.
.	.	32A\	.	.	.	.
.	.	32c\JJJ	.	.	.	.
(4DDDn/ 4DDn	.	32A\LLL	.	.	.	.
.	.	32c\	.	.	.	.
.	.	32A\	.	.	.	.
.	.	32c\JJJ	.	.	.	.
.	4fn^/	32f\LLL	.	4dn/	-ją	.
.	.	32c\	.	.	.	.
.	.	32A\	.	.	.	.
.	.	32c\JJJ	.	.	.	.
8EEE/ 8EE	.	32A\LLL	.	.	.	.
.	.	32c\	.	.	.	.
.	.	32A\	.	.	.	.
.	.	32c\JJJ	.	.	.	.
!	!	!LO:N:vis=2	!	!	!	!
!	!	!	!LO:HP:b	!	!	!
2FFFn/) 2FFn	2dn^/	32d\LLL	<	8r	.	.
.	.	32c\	.	.	.	.
.	.	32A\	.	.	.	.
.	.	32c\JJJ	.	.	.	.
!	!	!	!	!	!	!LO:HP:a
.	.	32A\LLL	.	8d/L	po	<
.	.	32c\	.	.	.	.
.	.	32A\	.	.	.	.
.	.	32c\JJJ	.	.	.	.
.	.	32A\LLL	.	8e/J	.	.
.	.	32c\	.	.	.	.
.	.	32A\	.	.	.	.
.	.	32c\JJJ	.	.	.	.
.	.	32A\LLL	.	8fn/	do-	[[
.	.	32c\	.	.	.	.
.	.	32A\	.	.	.	.
.	.	32c\JJJ	[[	.	.	.
=26	=26	=26	=26	=26	=26	=26
!	!	!	!	!	!	!LO:HP:a
8r	4fn^/	32fn\LLL	.	(2.a/	-li-	<
.	.	32cn\	.	.	.	.
.	.	32A\	.	.	.	.
!	!	!	!LO:HP:b	!	!	!
.	.	32c\JJJ	<	.	.	.
(4DDDn/ 4DDn	.	32A\LLL	.	.	.	.
.	.	32c\	.	.	.	.
.	.	32A\	.	.	.	.
.	.	32c\JJJ	.	.	.	.
.	4e^/	32e\LLL	.	.	.	.
.	.	32c\	.	.	.	.
.	.	32A\	.	.	.	.
.	.	32c\JJJ	.	.	.	.
8EEE/ 8EE	.	32A\LLL	.	.	.	.
.	.	32c\	.	.	.	.
.	.	32A\	[	.	.	[[
!	!	!	!LO:HP:b	!	!	!
.	.	32c\JJJ	>	.	.	>
4FFFn/ 4FFn	4dn^/	32d\LLL	.	.	.	.
.	.	32c\	.	.	.	.
.	.	32A\	.	.	.	.
.	.	32c\JJJ	.	.	.	.
.	.	32A\LLL	.	.	.	.
.	.	32c\	.	.	.	.
.	.	32A\	.	.	.	.
.	.	32c\JJJ	.	.	.	.
4GGGn/) 4GGn	4e^/	32e\LLL	.	4gn/)	.	.
.	.	32B\	]	.	.	.
.	.	32Fn\	.	.	.	.
.	.	32B\JJJ	.	.	.	.
.	.	32F\LLL	.	.	.	.
.	.	32B\	.	.	.	.
.	.	32F\	.	.	.	.
.	.	32B\JJJ	.	.	.	]
*	*v	*v	*	*	*	*
!!LO:LB:g=original	!	!	!	!	!
=27	=27	=27	=27	=27	=27
*^	*	*	*	*	*
*xywh-5:416,2877,3437,991	*xywh-5:416,2877,3437,991	*xywh-5:416,2877,3437,991	*xywh-5:416,2877,3437,991	*xywh-5:416,2877,3437,991	*	*
!LO:N:vis=2	!	!	!	!	!	!
8CCn/L	2CC\	[2E/ [2cn	.	4cn/	-nie	.
8GGn/	.	.	.	.	.	.
8Cn/	.	.	.	4r	.	.
8GG/J	.	.	.	.	.	.
8CC/	2ryy	8E/] 8c]	.	8r	.	.
8r	.	8r	.	8e/L	Tu-	.
4r	.	4r	.	8f#/J	.	.
.	.	.	.	8gn/	-taj	.
*v	*v	*	*	*	*	*
=28	=28	=28	=28	=28	=28
*	*^	*	*	*	*
*	*	*xywh-5:416,2877,3437,991	*	*	*	*
4r	4r	4ryy	.	[2a/	ża-	.
!	!	!	!LO:HP:b	!	!	!
(4Cn/	2e/	[2.A\	<	.	.	.
2BB/	.	.	.	8a/]	.	.
.	.	.	.	8g#/	-dna	.
!	!	!	!	!	!	!LO:HP:a
.	4d#X/	.	.	8b/	cię	<
.	.	.	[[	8a/	li-	.
=29	=29	=29	=29	=29	=29	=29
!	!	!	!	!	!	!LO:HP:a
!	!	!	!LO:HP:b	!	!	!
[2EE/	[2dn/	8A\L]	>	2ddn\	-to-	[ >
.	.	8F#\	.	.	.	.
.	.	8G#\	.	.	.	.
.	.	8A\J	.	.	.	.
8EE/])	8d/]	8B\	.	8g#/	-sna	]
8r	8r	8ryy	]	8r	.	.
!	!	!	!	!	!	!LO:HP:a
4r	4r	4ryy	.	8g#/	Dłoń	<
.	.	.	.	8a/	do	.
=30	=30	=30	=30	=30	=30	=30
4r	4r	4ryy	.	[2b\	ser-	.
!	!	!	!LO:HP:b	!	!	!
(<4Dn\	(2f#/	[2.B\	<	.	.	.
2C#/	.	.	.	8b\]	.	.
.	.	.	.	8a#X/	-ca	.
.	4e#X/	.	.	8cc#\	nie	.
.	.	.	[[	8b\	przy-	.
=31	=31	=31	=31	=31	=31	=31
!	!	!	!LO:HP:b	!	!	!
[2FF#/	[2en/	8B\L]	>	2ee\	-ciś-	.
.	.	8G#\	.	.	.	.
.	.	8A#X\	.	.	.	.
.	.	8B\J	.	.	.	.
8FF#/])	8e/])	8c#\	.	8a#X/	-nie,	.
8r	8r	8ryy	]	8r	.	.
!	!	!	!	!	!	!LO:DY:a
4r	4r	4ryy	.	8g#/	I	p
.	.	.	.	8a#/	nim	.
!!LO:LB:g=original	!	!	!	!	!	!
=32	=32	=32	=32	=32	=32	=32
*xywh-5:484,3886,3377,1188	*xywh-5:484,3886,3377,1188	*xywh-5:484,3886,3377,1188	*xywh-5:484,3886,3377,1188	*xywh-5:484,3886,3377,1188	*	*
!	!	!	!	!LO:TX:a:i:t=e molto tranquillo	!	!
[1GGn	4r	4ryy	.	4.b\	dru-	.
!	!	!	!LO:DY:b	!	!	!
.	(4dn/	2.B\	pp	.	.	.
.	.	.	.	8ddn\	-ga	.
.	4gn/	.	.	8ee\L	wio-	.
.	.	.	.	8dd\	.	.
.	4fn/	.	.	8b\J	.	.
.	.	.	.	8gn/	-sna	.
=33	=33	=33	=33	=33	=33	=33
1GG]	4e/	2.cn\	.	4b\	błyś-	.
.	4d#/	.	.	4a/	-nie.	.
!	!	!	!LO:HP:b	!	!	!
.	4dn/	.	<	8r	.	.
!	!	!	!	!	!	!LO:HP:a
.	.	.	.	8ddn\L	Ty	<
.	4fn/)	4B\	.	8ee\J	.	.
.	.	.	.	8ffn\	bez	[[
=34	=34	=34	=34	=34	=34	=34
[1CCn [1Cn	(4fn/	2.A\	[	4.ffn\	śla-	.
!	!	!	!LO:HP:b	!	!	!
.	4cn/	.	>	.	.	.
!	!	!	!	!	!	!LO:DY:a
.	.	.	.	8a/	-du	p
.	2e-X/	.	.	8dd#\L	zgi-	.
.	.	.	.	8ccn\	.	.
.	.	4c\	.	8a\J	.	.
.	.	.	.	8fn/	-niesz	.
=35	=35	=35	=35	=35	=35	=35
1CC_ 1C_<	4dn/	2B-X\	]	4a/	mar-	.
.	4c#/	.	.	4gn/	-nie,	.
.	4cn/) 4E<	4E/yy	.	8r	.	.
!	!	!	!	!	!	!LO:DY:a
.	.	.	.	8g/	bez	pp
!	!	!	!LO:DY:b	!	!	!
.	(4gn/ 4B-	4B-/yy	pp	8g/	śla-	.
.	.	.	.	8g/	-du	.
=36	=36	=36	=36	=36	=36	=36
!	!	!	!LO:HP:b	!	!	!LO:HP:a
2.CC/] 2.C]	4d#/	(2.A\	<	4.f#/	zgi-	<
.	4e/	.	.	.	.	.
.	.	.	.	8e/	-niesz	.
.	4.f#/	.	.	(4d#/	mar-	.
4FF#/	.	4A#X\)	.	4f#/)	.	[[
.	8e/	.	[[	.	.	.
*	*v	*v	*	*	*	*
!!LO:LB:g=original	!	!	!	!	!
!!LO:PB:g=original	!	!	!	!	!
=37	=37	=37	=37	=37	=37
*^	*	*	*	*	*
*xywh-6:493,695,3501,1232	*xywh-6:493,695,3501,1232	*xywh-6:493,695,3501,1232	*xywh-6:493,695,3501,1232	*xywh-6:493,695,3501,1232	*	*
!	!	!	!	!	!	!LO:HP:a
[<2BB/	8BBB\	8B/L) 8d#	.	[2a/	-nie	>
.	8ryy	(8c#/ 8a	.	.	.	.
.	4ryy	8B/ 8d#	.	.	.	.
.	.	8c#/J 8e	.	.	.	.
!LO:N:vis=2	!	!	!	!	!	!
8BB/L]	[2BB\	4d#/ 4f#	.	8a/]	.	]
(8B/	.	.	.	8r	.	.
8F#/	.	[4e/) [4cc#	.	4r	.	.
8G#/J	.	.	.	.	.	.
=38	=38	=38	=38	=38	=38	=38
*	*	*^	*	*	*	*
*	*	*	*xywh-6:493,695,3501,1232	*	*	*	*
4.A/	1BB]	8cc#/L]	2e\_	.	1r	.	.
.	.	(8e#X/	.	.	.	.	.
.	.	8f#/	.	.	.	.	.
8G#/	.	8g#/J	.	.	.	.	.
8F#/)	.	8e/L] 8a	8ryy	.	.	.	.
8ryy	.	8B/	4B\	.	.	.	.
4ryy	.	8c#/ 8e#X	.	.	.	.	.
.	.	8A/J 8d# 8f#	8ryy	.	.	.	.
*v	*v	*	*	*	*	*	*
=39	=39	=39	=39	=39	=39	=39
2EE/	8G#/L) 8e 8g#	8ryy	.	4.b\	Tak	.
!	!	!	!LO:DY:b	!	!	!
.	(8G#/	[4.G#\	p	.	.	.
.	8B/	.	.	.	.	.
.	8e/J	.	.	8g#/	prze-	.
[2E\	8g#/L	8G#\]	.	8cc#\	-cho-	.
.	8e/	8ryy	.	8b\	-dzień	.
.	8B/	4ryy	.	8g#/	mó-	.
.	8G#/J)	.	.	8e/	-wił	.
=40	=40	=40	=40	=40	=40	=40
!	!LO:N:vis=2	!	!	!	!	!
2E\]	(8A/L	[2A\	.	(4.f#/	do	.
.	8c#/	.	.	.	.	.
.	8f#/	.	.	.	.	.
.	8c#/J	.	.	8g#/)	.	.
!	!	!	!LO:HP:b	!	!	!
[2EE/	8a/L	8A\]	<	4a/	niej,	.
.	8f#/	8ryy	.	.	.	.
!	!	!	!	!	!	!LO:HP:a
.	8c#/	4ryy	.	8g#/	I	<
.	8A/J)	.	.	8a/	przy	.
!!LO:LB:g=original	!	!	!	!	!	!
=41	=41	=41	=41	=41	=41	=41
*xywh-6:518,1876,3441,1010	*xywh-6:518,1876,3441,1010	*xywh-6:518,1876,3441,1010	*xywh-6:518,1876,3441,1010	*xywh-6:518,1876,3441,1010	*	*
2EE/]	8F#/L	8ryy	.	2ee\	tu-	.
.	8A/	[4.A\	.	.	.	.
.	8c#/	.	[	.	.	.
.	8f#/J	.	.	.	.	.
!	!	!	!LO:HP:b	!	!	!
[2E\	8a/L	8A\]	>	8ee\	.	[
.	8f#/	8ryy	.	8cc#\	-lił	>
.	8c#/	4ryy	.	8a/	ją	.
.	8A/J	.	]]	8g#/	do	]]
=42	=42	=42	=42	=42	=42	=42
(<4E\]	8F#/L	8ryy	.	4b\	ło-	.
.	8B/	[4.B\	.	.	.	.
4EE/	8f#/	.	.	4f#/	-na,	.
.	8a/J	.	.	.	.	.
2DD#/)	8b/L	8B\]	.	4r	.	.
.	8a/	8ryy	.	.	.	.
!	!	!	!	!LO:TX:a:i:t=dolce	!	!
.	8f#/	4ryy	.	8g#/	Ró-	.
.	8B/J	.	.	8a/	-ża	.
=43	=43	=43	=43	=43	=43	=43
!	!	!	!LO:DY:b	!	!	!
!	!LO:N:vis=2	!	!	!	!	!
(2EE/	8G#/L	[2G#\	pp	4.b\	na	.
.	8B/	.	.	.	.	.
.	8e/	.	.	.	.	.
.	8B/J	.	.	8g#/	to	.
2DDn/ 2Dn	8g#/L	8G#\]	.	8cc#\L	głów-	.
.	8e/	8ryy	.	8b\	.	.
.	8B/	4ryy	.	8g#\J	.	.
.	8G#/J	.	.	8e/	-kę	.
=44	=44	=44	=44	=44	=44	=44
!	!LO:N:vis=2	!	!	!	!	!LO:HP:a
!	!	!	!LO:HP:b	!	!	!
4CC#/ 4C#	(8A/L	2A\	<	(4.f#/	kło-	<
.	8e/	.	.	.	.	.
4CCn/ 4Cn	8f#/	.	.	.	.	.
.	8e/J	.	.	8a/)	.	.
4BBB/ 4BB	4g#/	8g#\L	[	8g#/	-ni,	[
.	.	8dn\	.	8g#/L	I	.
4EE/)	8d/L 8f#	8A\	.	8f#/J	.	.
.	8d/J 8e	8G#\J	.	8e/	na	.
!!LO:LB:g=original	!	!	!	!	!	!
=45	=45	=45	=45	=45	=45	=45
*xywh-6:518,2860,3501,1061	*xywh-6:518,2860,3501,1061	*xywh-6:518,2860,3501,1061	*xywh-6:518,2860,3501,1061	*xywh-6:518,2860,3501,1061	*	*
[2AAA/ [2AA	8A/L) 8c# 8e	8ryy	.	4cc#\	pier-	.
.	(8A/	4.A\	.	.	.	.
.	8B#X/	.	.	4f#/	-siach	.
.	[<8c#/J	.	.	.	.	.
8AAA/] 8AA]	8A/) 8c#] 8f#	2ryy	.	8r	.	.
!	!	!	!	!	!	!LO:HP:a
8r	8r	.	.	8f#/L	Je-	<
4r	4r	.	.	8e#X/J	.	.
.	.	.	.	8f#/	-go	[[
=46	=46	=46	=46	=46	=46	=46
!	!	!	!	!	!	!LO:HP:a
1BBB 1BB	8r	8ryy	.	(2.a/	ko-	>
!	!	!	!LO:HP:b	!	!	!
.	(8A/L	[4.A\	<	.	.	.
.	8B#X/	.	.	.	.	.
.	8c#/J	.	.	.	.	.
!	!	!	!LO:HP:b	!	!	!
.	8f#/L	2A\]	[ >	.	.	.
.	8e/	.	.	.	.	.
.	8c#/	.	.	8a/L	.	.
.	8d#/J	.	]]	8g#/J)	.	]]
=47	=47	=47	=47	=47	=47	=47
2EE/	8G#/L) 8e	8ryy	.	2e/	-na	.
.	(>8G#/	[4.G#\	.	.	.	.
!	!LO:TX:t=P:problem= 8B i 4B zapisane unisono	!	!	!	!	!
.	[8B\	.	.	.	.	.
.	[<8e/J	.	.	.	.	.
8EE/	8G#/] 8B] 8e] 8g#)	2ryy	.	8r	.	.
!	!	!	!	!	!	!LO:DY:a
8r	8r	.	.	8g#/L	Ró-	p
4r	4r	.	.	8f#/J	.	.
.	.	.	.	8e/	-ża	.
=48	=48	=48	=48	=48	=48	=48
!	!	!	!	!	!	!LO:HP:a
4r	4r	4ryy	.	4e/	na	<
!	!	!	!LO:DY:b	!	!	!
!	!	!	!LO:HP:b	!	!	!
(4GG#/	2.e/	(4B-X\ 4dn	p <	4e/	to	.
4AA/	.	4A\ 4c#	.	4.ee\	głów-	[
4AA#X/	.	4G#\) 4cn	[	.	.	.
!	!	!	!	!	!	!LO:HP:a
.	.	.	.	8ccn\	-kę	>
*	*clefF4	*	*	*	*	*
!!LO:LB:g=original	!	!	!	!	!	!
=49	=49	=49	=49	=49	=49	=49
*xywh-6:493,3913,3604,1121	*xywh-6:493,3913,3604,1121	*xywh-6:493,3913,3604,1121	*xywh-6:493,3913,3604,1121	*xywh-6:493,3913,3604,1121	*	*
!	!	!	!LO:HP:b	!	!	!
2BBB/) 2BB	[2B/	4Gn\	>	2b\	kło-	.
.	.	4F#\ 4A#X	.	.	.	.
4r	2B/]	2Fn\ 2An	]	8b\	-ni.	]
!	!	!	!	!	!	!LO:DY:a
.	.	.	.	4b\	I	p
(4DDD#/ 4DD#	.	.	.	.	.	.
.	.	.	.	8b\	na	.
=50	=50	=50	=50	=50	=50	=50
!	!	!	!LO:HP:b	!	!	!
(1EEE) 1EE	(2.B/	4E\ 4G#	<	[2e/	pier-	.
.	.	4D#\ 4Gn	.	.	.	.
!	!	!	!	!	!	!LO:HP:a
.	.	4Dn\ 4F#	.	8e/]	.	<
.	.	.	.	8e/	-siach	.
.	4B-X^/	4C#\ 4Gn	[	8e/	je-	.
.	.	.	.	8e/	-go	[[
=51	=51	=51	=51	=51	=51	=51
!	!	!	!	!	!	!LO:HP:a
!	!	!	!LO:HP:b	!	!	!
2.FFFn/) 2.FFn	8Cn\) 8Fn 8A	8ryy	>	([2.a/	ko-	>
*	*clefG2	*	*	*	*	*
!	!	!	!LO:HP:b	!	!	!
.	(8A/L	[4.A\	] <	.	.	.
.	8B/	.	.	.	.	.
.	8cn/J	.	.	.	.	.
!	!	!	!LO:HP:b	!	!	!
.	4e/	2A\]	[ >	.	.	.
(4BBB/ 4BB	4d#/	.	.	8a/L]	.	.
.	.	.	.	8g#/J)	.	]]
=52	=52	=52	=52	=52	=52	=52
*	*	*^	*	*	*	*
*ped	*	*	*	*	*	*	*
[2EE/)	8G#/L) 8e	8ryy	4ryy	]	[1g#	-na.	.
!	!	!	!	!LO:DY:b	!	!	!
.	8b/	[>4.b\	.	pp	.	.	.
*	*	*	*xywh-6:493,3913,3604,1121	*	*	*	*
.	8g#/	.	[>4g#\	.	.	.	.
.	[<8e/J	.	.	.	.	.	.
!	!	!	!	!LO:HP:b	!	!	!
8EE/L]	[<2B/ 2e_< [2g# [2b]	2r	2ryy	>	.	.	.
(8G#/	.	.	.	.	.	.	.
8E/	.	.	.	.	.	.	.
8BB/J	.	.	.	.	.	.	.
*	*v	*v	*v	*	*	*	*
=53	=53	=53	=53	=53	=53
1EE)	1B] 1e] 1g#] 1b]	]	4g#/]	.	.
.	.	.	4r	.	.
.	.	.	2r	.	.
*Xped	*	*	*	*	*
==	==	==	==	==	==
*-	*-	*-	*-	*-	*-
!!!system-decoration: s1{(s2,s3)}
!!!RDF**kern: > = above
!!!RDF**kern: < = below
!!!ENC: Andrzej Gręziak
!!!END: 2022-03-17
!!!ENC: Jan Barakat
!!!END: 2022-03-21
!!!YEC: Copyright 2022 Narodowy Instytut Fryderyka Chopina (https://polishscores.org)
!!!YEM: License CC-BY-4.0 (https://creativecommons.org/licenses/by/4.0)
!!!IIIF: https://polona.pl/iiif/item/MTA2MzEwNDQx/manifest.json
!!!ENC-iiif: Konrad Tyszka
!!!END-iiif: 2022-08-28
